public/assets/superheroswaplogo.svg

<svg xmlns="http://www.w3.org/2000/svg" xmlns:xlink="http://www.w3.org/1999/xlink" width="400" zoomAndPan="magnify" viewBox="0 0 300 109.499999" height="146" preserveAspectRatio="xMidYMid meet" version="1.2"><defs/><g id="a14a5c8723"><g style="fill:#53b6bf;fill-opacity:1;"><g transform="translate(0.703861, 31.846324)"><path style="stroke:none" d="M 30.246094 -24.210938 L 8.734375 -24.210938 C 5.160156 -24.210938 1.652344 -21.3125 1.652344 -17.703125 L 1.652344 -16.488281 C 1.652344 -12.613281 4.820312 -10.015625 8.734375 -10.015625 L 23.097656 -9.980469 C 24.75 -9.980469 25.59375 -9.273438 25.59375 -7.824219 L 25.59375 -6.574219 C 25.59375 -5.363281 24.3125 -4.351562 23.097656 -4.351562 L 1.585938 -4.351562 L 1.585938 -0.0351562 L 23.097656 -0.0351562 C 26.640625 -0.0351562 30.144531 -2.867188 30.144531 -6.574219 L 30.144531 -7.824219 C 30.144531 -11.632812 26.976562 -14.296875 23.097656 -14.296875 L 8.734375 -14.332031 C 7.082031 -14.332031 6.238281 -15.039062 6.238281 -16.488281 L 6.238281 -17.703125 C 6.238281 -18.882812 7.519531 -19.894531 8.734375 -19.894531 L 30.246094 -19.894531 Z M 30.246094 -24.210938 "/></g></g><g style="fill:#53b6bf;fill-opacity:1;"><g transform="translate(33.342131, 31.846324)"><path style="stroke:none" d="M 31.023438 -24.210938 L 26.46875 -24.210938 L 26.46875 -6.574219 C 26.46875 -5.125 25.628906 -4.417969 23.976562 -4.417969 L 8.734375 -4.417969 C 7.082031 -4.417969 6.238281 -5.125 6.238281 -6.574219 L 6.238281 -24.210938 L 1.652344 -24.210938 L 1.652344 -6.574219 C 1.652344 -2.730469 4.820312 -0.0351562 8.734375 -0.0351562 L 23.976562 -0.0351562 C 27.785156 -0.0351562 31.023438 -2.765625 31.023438 -6.574219 Z M 31.023438 -24.210938 "/></g></g><g style="fill:#53b6bf;fill-opacity:1;"><g transform="translate(67.160506, 31.846324)"><path style="stroke:none" d="M 31.023438 -17.667969 C 31.023438 -21.515625 27.820312 -24.175781 23.976562 -24.175781 L 1.484375 -24.175781 L 1.484375 -0.0351562 L 6.035156 -0.0351562 L 6.035156 -19.863281 L 23.976562 -19.863281 C 25.628906 -19.863281 26.46875 -19.121094 26.46875 -17.667969 L 26.46875 -16.355469 C 26.46875 -15.003906 25.628906 -14.332031 23.976562 -14.332031 L 7.453125 -14.332031 L 7.453125 -9.878906 L 23.976562 -9.878906 C 27.820312 -9.878906 31.023438 -12.476562 31.023438 -16.355469 Z M 31.023438 -17.667969 "/></g></g><g style="fill:#53b6bf;fill-opacity:1;"><g transform="translate(100.607995, 31.846324)"><path style="stroke:none" d="M 29.605469 -17.667969 C 29.605469 -21.546875 26.300781 -24.175781 22.558594 -24.175781 L 8.226562 -24.175781 C 4.484375 -24.175781 1.148438 -21.582031 1.148438 -17.667969 L 1.148438 -6.574219 C 1.148438 -2.832031 4.652344 -0.0351562 8.226562 -0.0351562 L 29.203125 -0.0351562 L 29.203125 -4.351562 L 8.226562 -4.351562 C 7.015625 -4.351562 5.734375 -5.363281 5.734375 -6.574219 L 5.734375 -17.667969 C 5.734375 -19.121094 6.574219 -19.863281 8.226562 -19.863281 L 22.558594 -19.863281 C 24.210938 -19.863281 25.054688 -19.121094 25.054688 -17.667969 L 25.054688 -16.488281 C 25.054688 -15.308594 23.738281 -14.332031 22.558594 -14.332031 L 8.226562 -14.332031 L 8.226562 -9.980469 L 22.558594 -9.980469 C 26.167969 -9.980469 29.605469 -12.914062 29.605469 -16.488281 Z M 29.605469 -17.667969 "/></g></g><g style="fill:#53b6bf;fill-opacity:1;"><g transform="translate(133.246265, 31.846324)"><path style="stroke:none" d="M 31.023438 -7.890625 C 31.023438 -9.441406 30.414062 -10.859375 29.234375 -12.140625 C 30.414062 -13.386719 31.023438 -14.769531 31.023438 -16.355469 L 31.023438 -17.667969 C 31.023438 -21.515625 27.820312 -24.175781 23.976562 -24.175781 L 1.484375 -24.175781 L 1.484375 -0.0351562 L 6.035156 -0.0351562 L 6.035156 -19.863281 L 23.976562 -19.863281 C 25.628906 -19.863281 26.46875 -19.121094 26.46875 -17.667969 L 26.46875 -16.355469 C 26.46875 -15.003906 25.628906 -14.332031 23.976562 -14.332031 L 7.453125 -14.332031 L 7.453125 -9.878906 L 23.976562 -9.878906 C 25.289062 -9.878906 26.46875 -9.136719 26.46875 -7.890625 L 26.46875 -0.0351562 L 31.023438 -0.0351562 Z M 31.023438 -7.890625 "/></g></g><g style="fill:#53b6bf;fill-opacity:1;"><g transform="translate(167.604113, 31.846324)"><path style="stroke:none" d="M 29.167969 -24.210938 L 24.648438 -24.210938 L 24.648438 -14.332031 L 6.980469 -14.332031 L 6.980469 -9.878906 L 24.648438 -9.878906 L 24.648438 -0.0351562 L 29.167969 -0.0351562 Z M 5.5625 -24.210938 L 1.011719 -24.210938 L 1.011719 -0.0351562 L 5.5625 -0.0351562 Z M 5.5625 -24.210938 "/></g></g><g style="fill:#53b6bf;fill-opacity:1;"><g transform="translate(199.635462, 31.846324)"><path style="stroke:none" d="M 29.605469 -17.667969 C 29.605469 -21.546875 26.300781 -24.175781 22.558594 -24.175781 L 8.226562 -24.175781 C 4.484375 -24.175781 1.148438 -21.582031 1.148438 -17.667969 L 1.148438 -6.574219 C 1.148438 -2.832031 4.652344 -0.0351562 8.226562 -0.0351562 L 29.203125 -0.0351562 L 29.203125 -4.351562 L 8.226562 -4.351562 C 7.015625 -4.351562 5.734375 -5.363281 5.734375 -6.574219 L 5.734375 -17.667969 C 5.734375 -19.121094 6.574219 -19.863281 8.226562 -19.863281 L 22.558594 -19.863281 C 24.210938 -19.863281 25.054688 -19.121094 25.054688 -17.667969 L 25.054688 -16.488281 C 25.054688 -15.308594 23.738281 -14.332031 22.558594 -14.332031 L 8.226562 -14.332031 L 8.226562 -9.980469 L 22.558594 -9.980469 C 26.167969 -9.980469 29.605469 -12.914062 29.605469 -16.488281 Z M 29.605469 -17.667969 "/></g></g><g style="fill:#53b6bf;fill-opacity:1;"><g transform="translate(232.273741, 31.846324)"><path style="stroke:none" d="M 31.023438 -7.890625 C 31.023438 -9.441406 30.414062 -10.859375 29.234375 -12.140625 C 30.414062 -13.386719 31.023438 -14.769531 31.023438 -16.355469 L 31.023438 -17.667969 C 31.023438 -21.515625 27.820312 -24.175781 23.976562 -24.175781 L 1.484375 -24.175781 L 1.484375 -0.0351562 L 6.035156 -0.0351562 L 6.035156 -19.863281 L 23.976562 -19.863281 C 25.628906 -19.863281 26.46875 -19.121094 26.46875 -17.667969 L 26.46875 -16.355469 C 26.46875 -15.003906 25.628906 -14.332031 23.976562 -14.332031 L 7.453125 -14.332031 L 7.453125 -9.878906 L 23.976562 -9.878906 C 25.289062 -9.878906 26.46875 -9.136719 26.46875 -7.890625 L 26.46875 -0.0351562 L 31.023438 -0.0351562 Z M 31.023438 -7.890625 "/></g></g><g style="fill:#53b6bf;fill-opacity:1;"><g transform="translate(266.631581, 31.846324)"><path style="stroke:none" d="M 31.023438 -17.703125 C 31.023438 -21.3125 27.480469 -24.210938 23.976562 -24.210938 L 8.734375 -24.210938 C 5.160156 -24.210938 1.652344 -21.3125 1.652344 -17.703125 L 1.652344 -6.574219 C 1.652344 -2.730469 4.820312 -0.0351562 8.734375 -0.0351562 L 23.976562 -0.0351562 C 27.785156 -0.0351562 31.023438 -2.765625 31.023438 -6.574219 Z M 26.46875 -6.574219 C 26.46875 -5.125 25.628906 -4.417969 23.976562 -4.417969 L 8.734375 -4.417969 C 7.082031 -4.417969 6.238281 -5.125 6.238281 -6.574219 L 6.238281 -17.703125 C 6.238281 -18.882812 7.519531 -19.894531 8.734375 -19.894531 L 23.976562 -19.894531 C 25.1875 -19.894531 26.46875 -18.882812 26.46875 -17.703125 Z M 26.46875 -6.574219 "/></g></g><g style="fill:#53b6bf;fill-opacity:1;"><g transform="translate(0.691146, 91.648921)"><path style="stroke:none" d="M 63.882812 -51.136719 L 18.445312 -51.136719 C 10.898438 -51.136719 3.488281 -45.011719 3.488281 -37.390625 L 3.488281 -34.828125 C 3.488281 -26.636719 10.183594 -21.152344 18.445312 -21.152344 L 48.785156 -21.082031 C 52.273438 -21.082031 54.054688 -19.585938 54.054688 -16.523438 L 54.054688 -13.886719 C 54.054688 -11.324219 51.347656 -9.1875 48.785156 -9.1875 L 3.347656 -9.1875 L 3.347656 -0.0703125 L 48.785156 -0.0703125 C 56.261719 -0.0703125 63.671875 -6.054688 63.671875 -13.886719 L 63.671875 -16.523438 C 63.671875 -24.570312 56.976562 -30.195312 48.785156 -30.195312 L 18.445312 -30.269531 C 14.957031 -30.269531 13.175781 -31.765625 13.175781 -34.828125 L 13.175781 -37.390625 C 13.175781 -39.882812 15.882812 -42.019531 18.445312 -42.019531 L 63.882812 -42.019531 Z M 63.882812 -51.136719 "/></g></g><g style="fill:#53b6bf;fill-opacity:1;"><g transform="translate(69.624105, 91.648921)"><path style="stroke:none" d="M 85.390625 -51.066406 L 75.707031 -51.066406 L 75.707031 -13.746094 C 75.707031 -10.683594 73.925781 -9.1875 70.4375 -9.1875 L 63.8125 -9.1875 C 60.324219 -9.1875 58.542969 -10.683594 58.542969 -13.746094 L 58.542969 -37.320312 C 58.542969 -45.507812 51.632812 -51.066406 43.515625 -51.066406 C 35.46875 -51.066406 28.703125 -45.507812 28.628906 -37.320312 L 28.488281 -13.746094 C 28.488281 -10.683594 26.707031 -9.1875 23.21875 -9.1875 L 16.664062 -9.1875 C 13.175781 -9.1875 11.394531 -10.683594 11.394531 -13.746094 L 11.394531 -51.066406 L 1.78125 -51.066406 L 1.78125 -13.746094 C 1.78125 -5.839844 8.261719 -0.0703125 16.664062 -0.0703125 L 23.21875 -0.0703125 C 31.550781 -0.0703125 38.171875 -5.625 38.171875 -13.746094 L 38.246094 -37.320312 C 38.246094 -40.382812 40.027344 -41.949219 43.515625 -41.949219 C 47.074219 -41.949219 48.855469 -40.382812 48.855469 -37.320312 L 48.855469 -13.746094 C 48.855469 -5.625 55.550781 -0.0703125 63.8125 -0.0703125 L 70.4375 -0.0703125 C 78.554688 -0.0703125 85.390625 -5.699219 85.390625 -13.746094 Z M 85.390625 -51.066406 "/></g></g><g style="fill:#53b6bf;fill-opacity:1;"><g transform="translate(160.775133, 91.648921)"><path style="stroke:none" d="M 63.242188 -37.390625 C 63.242188 -44.941406 55.980469 -51.136719 48.359375 -51.136719 L 4.128906 -51.136719 L 4.128906 -42.019531 L 48.359375 -42.019531 C 50.921875 -42.019531 53.699219 -39.882812 53.699219 -37.390625 L 53.699219 -13.886719 C 53.699219 -10.824219 51.917969 -9.328125 48.359375 -9.328125 L 18.160156 -9.328125 C 14.671875 -9.328125 12.890625 -10.824219 12.890625 -13.886719 L 12.890625 -16.308594 C 12.890625 -18.875 15.597656 -20.9375 18.160156 -20.9375 L 48.359375 -20.9375 L 48.359375 -30.125 L 18.160156 -30.125 C 10.683594 -30.125 3.277344 -24.070312 3.277344 -16.308594 L 3.277344 -13.886719 C 3.277344 -5.769531 10.042969 -0.0703125 18.160156 -0.0703125 L 48.359375 -0.0703125 C 56.546875 -0.0703125 63.242188 -5.769531 63.242188 -13.886719 Z M 63.242188 -37.390625 "/></g></g><g style="fill:#53b6bf;fill-opacity:1;"><g transform="translate(229.708084, 91.648921)"><path style="stroke:none" d="M 65.523438 -37.320312 C 65.523438 -45.4375 58.757812 -51.066406 50.636719 -51.066406 L 3.132812 -51.066406 L 3.132812 -0.0703125 L 12.75 -0.0703125 L 12.75 -41.949219 L 50.636719 -41.949219 C 54.125 -41.949219 55.90625 -40.382812 55.90625 -37.320312 L 55.90625 -34.542969 C 55.90625 -31.691406 54.125 -30.269531 50.636719 -30.269531 L 15.738281 -30.269531 L 15.738281 -20.867188 L 50.636719 -20.867188 C 58.757812 -20.867188 65.523438 -26.351562 65.523438 -34.542969 Z M 65.523438 -37.320312 "/></g></g></g></svg>

<svg xmlns="http://www.w3.org/2000/svg" width="400" height="146" version="1.2" viewBox="0 0 300 109.5"><g style="fill:#53b6bf;fill-opacity:1"><path d="M30.2-24.2H8.7c-3.5 0-7 2.9-7 6.5v1.2c0 3.9 3.1 6.5 7 6.5h14.4c1.6 0 2.5.7 2.5 2.2v1.2c0 1.2-1.3 2.2-2.5 2.2H1.6V0H23c3.5 0 7-2.9 7-6.6v-1.2c0-3.8-3.1-6.5-7-6.5H8.7c-1.6 0-2.5-.7-2.5-2.2v-1.2c0-1.2 1.3-2.2 2.5-2.2h21.5Zm0 0" style="stroke:none" transform="translate(.7 31.8)"/></g><g style="fill:#53b6bf;fill-opacity:1"><path d="M31-24.2h-4.5v17.6c0 1.5-.9 2.2-2.5 2.2H8.7c-1.6 0-2.5-.7-2.5-2.2v-17.6H1.7v17.6c0 3.9 3.1 6.6 7 6.6H24c3.8 0 7-2.8 7-6.6Zm0 0" style="stroke:none" transform="translate(33.3 31.8)"/></g><g style="fill:#53b6bf;fill-opacity:1"><path d="M31-17.7c0-3.8-3.2-6.5-7-6.5H1.5V0H6V-20h18c1.6 0 2.5.8 2.5 2.2v1.3c0 1.4-.9 2-2.5 2H7.5v4.5H24c3.8 0 7-2.6 7-6.5Zm0 0" style="stroke:none" transform="translate(67.2 31.8)"/></g><g style="fill:#53b6bf;fill-opacity:1"><path d="M29.6-17.7c0-3.8-3.3-6.5-7-6.5H8.2c-3.7 0-7 2.6-7 6.5v11.1c0 3.8 3.5 6.6 7 6.6h21v-4.4h-21c-1.2 0-2.5-1-2.5-2.2v-11c0-1.5.9-2.3 2.5-2.3h14.4c1.6 0 2.5.8 2.5 2.2v1.2c0 1.2-1.4 2.2-2.5 2.2H8.2v4.3h14.4c3.6 0 7-3 7-6.5Zm0 0" style="stroke:none" transform="translate(100.6 31.8)"/></g><g style="fill:#53b6bf;fill-opacity:1"><path d="M31-7.9c0-1.5-.6-3-1.8-4.2a6 6 0 0 0 1.8-4.3v-1.3c0-3.8-3.2-6.5-7-6.5H1.5V0H6V-20h18c1.6 0 2.5.8 2.5 2.2v1.3c0 1.4-.9 2-2.5 2H7.5v4.5H24c1.3 0 2.5.8 2.5 2V0H31Zm0 0" style="stroke:none" transform="translate(133.2 31.8)"/></g><g style="fill:#53b6bf;fill-opacity:1"><path d="M29.2-24.2h-4.6v9.9H7v4.4h17.6V0h4.6Zm-23.6 0H1V0h4.6Zm0 0" style="stroke:none" transform="translate(167.6 31.8)"/></g><g style="fill:#53b6bf;fill-opacity:1"><path d="M29.6-17.7c0-3.8-3.3-6.5-7-6.5H8.2c-3.7 0-7 2.6-7 6.5v11.1c0 3.8 3.5 6.6 7 6.6h21v-4.4h-21c-1.2 0-2.5-1-2.5-2.2v-11c0-1.5.9-2.3 2.5-2.3h14.4c1.6 0 2.5.8 2.5 2.2v1.2c0 1.2-1.4 2.2-2.5 2.2H8.2v4.3h14.4c3.6 0 7-3 7-6.5Zm0 0" style="stroke:none" transform="translate(199.6 31.8)"/></g><g style="fill:#53b6bf;fill-opacity:1"><path d="M31-7.9c0-1.5-.6-3-1.8-4.2a6 6 0 0 0 1.8-4.3v-1.3c0-3.8-3.2-6.5-7-6.5H1.5V0H6V-20h18c1.6 0 2.5.8 2.5 2.2v1.3c0 1.4-.9 2-2.5 2H7.5v4.5H24c1.3 0 2.5.8 2.5 2V0H31Zm0 0" style="stroke:none" transform="translate(232.3 31.8)"/></g><g style="fill:#53b6bf;fill-opacity:1"><path d="M31-17.7c0-3.6-3.5-6.5-7-6.5H8.7c-3.5 0-7 2.9-7 6.5v11.1c0 3.9 3.1 6.6 7 6.6H24c3.8 0 7-2.8 7-6.6ZM26.5-6.6c0 1.5-.9 2.2-2.5 2.2H8.7c-1.6 0-2.5-.7-2.5-2.2v-11.1c0-1.2 1.3-2.2 2.5-2.2H24c1.2 0 2.5 1 2.5 2.2Zm0 0" style="stroke:none" transform="translate(266.6 31.8)"/></g><g style="fill:#53b6bf;fill-opacity:1"><path d="M63.9-51.1H18.4c-7.5 0-15 6-15 13.7v2.6c0 8.2 6.8 13.6 15 13.6l30.4.1c3.5 0 5.3 1.5 5.3 4.6v2.6c0 2.6-2.8 4.7-5.3 4.7H3.3V0h45.5c7.5 0 14.9-6 14.9-13.8v-2.6c0-8-6.7-13.7-15-13.7H18.5c-3.4 0-5.2-1.6-5.2-4.6v-2.6c0-2.5 2.7-4.6 5.2-4.6H64Zm0 0" style="stroke:none" transform="translate(.7 91.6)"/></g><g style="fill:#53b6bf;fill-opacity:1"><path d="M85.4-51h-9.7v37.3c0 3-1.8 4.5-5.3 4.5h-6.6c-3.5 0-5.3-1.5-5.3-4.5v-23.6c0-8.2-6.9-13.8-15-13.8-8 0-14.8 5.6-14.9 13.8l-.1 23.6c0 3-1.8 4.5-5.3 4.5h-6.5c-3.5 0-5.3-1.5-5.3-4.5v-37.4H1.8v37.4C1.8-5.8 8.3-.1 16.7-.1h6.5c8.4 0 15-5.5 15-13.6v-23.6c0-3 1.8-4.6 5.3-4.6 3.6 0 5.4 1.5 5.4 4.6v23.6c0 8 6.7 13.6 15 13.6h6.5c8.2 0 15-5.6 15-13.6Zm0 0" style="stroke:none" transform="translate(69.6 91.6)"/></g><g style="fill:#53b6bf;fill-opacity:1"><path d="M63.2-37.4C63.2-44.9 56-51 48.4-51H4v9h44.3c2.5 0 5.3 2.2 5.3 4.7v23.5c0 3-1.8 4.6-5.3 4.6H18.2c-3.5 0-5.3-1.5-5.3-4.6v-2.4c0-2.6 2.7-4.6 5.3-4.6h30.2v-9.2H18.2c-7.5 0-15 6-15 13.8v2.4C3.3-5.8 10 0 18.3 0h30.2c8.1 0 14.8-5.7 14.8-13.8Zm0 0" style="stroke:none" transform="translate(160.8 91.6)"/></g><g style="fill:#53b6bf;fill-opacity:1"><path d="M65.5-37.3c0-8.1-6.7-13.8-14.9-13.8H3.1V0h9.7v-41.8h37.8c3.5 0 5.3 1.5 5.3 4.6v2.8c0 2.8-1.8 4.2-5.3 4.2H15.7v9.4h35c8 0 14.8-5.5 14.8-13.6Zm0 0" style="stroke:none" transform="translate(229.7 91.6)"/></g></svg>
